!!key: tele-40-11-Fan-A_t-01-Flute
!!!COM: Telemann, Georg Philipp
!!!CDT: 1681/03/14-1767/06/25
!!!CBL: Magdeburg
!!!CDL: Hamburg
!!!CNT: German
!!!TWV: 40:11
!!!TWV-genre: 40
!!!TWV-work: 11
!!!OPR: 12 Fantasias for transverse flute without bass
!!!OTL: Fantasia 10
!!!OMD: A tempo giusto
!!!OMV: 1
!!!ODT: ca. 1732–1733
!!!AST: Late Baroque
!!!AGN: Fantasia
!!!AMT: Simple triple
!!!AIN: Transverse flute
**kern
*ICww
*Iflt
*clefG2
*k[f#c#g#]
*f#:
*M3/4
8r
8ff#
=1
4.ff#
8cc#L
8a
8cc#J
=2
8f#L
8a
8cc#
8ff#
8aa
8ff#J
=3
8bL
8dd
8ff#
8bb
8ddd
8bbJ
=4
8e#XL
8g#
8cc#
8ee#X
8gg#
8bJ
=5
8aL
8ff#
8g#
8ff#
8cc#
8ee#XJ
!!LO:LB:g=original
=6
4f#
8r
8aaL
8gg#
8ff#J
=7
8eeL
8g#
8a
8ee
8ff#
8cc#J
=8
8ddL
8f#
8g#
8b
8ee
8ddJ
=9
!TODO: trill +
4cc#
8r
8cc#L
8b
8aJ
=10
8bL
8dd#X
8ee
8gg#
8cc#
8bJ
=11
8aL
8ee
8dd#X
8ff#
8b
8aJ
!!LO:LB:g=original
=12
!TODO: trill +
4g#
8r
8eeL
8cc#
8eeJ
=13
8ff#L
8a
8d
8cc#
8b
8aaJ
=14
8gg#L
8b
8e
8dd
8cc#
8bbJ
=15
8aaL
8cc#
8f#
8ee
8dd
8ccc#J
=16
8bbL
8dd
8g#
8ff#
8ee
8dddJ
=17
8ccc#L
8gg#
8aa
8d
8e
8gg#J
!!LO:LB:g=original
=18
8aL
8aa
8b
8gg#
8cc#
8aaJ
=19
8ddL
(8ff#
8ee#X
8ff#)
(8bb
8aa#XJ
=20
8bb)L
8ddd
8bb
8gg#
8aan
8ff#J
=21
8cc#L
8ee#X
8gg#
8ccc#
8gg#
8ee#J
=22
2cc#
=:||:
8r
8gg#
=23
4.gg#
8ee#XL
8ff#
8gg#J
!!LO:LB:g=original
=24
8cc#L
8ee#X
8gg#
8dd
8cc#
8bJ
=25
8a#XL
8cc#
8ee
8ggn
8ff#
8eeJ
=26
8dd\L
8b
8ee
8gn
8ff#
8dJ
=27
8ggnL
8e
8f#
8dd
8cc#
8aa#XJ
=28
4b
8r
8cc#L
8dd
8cc#J
=29
8b#XL
8dd#X
8ff#
8aa
8gg
8ff#J
!!LO:LB:g=original
=30
8eeL
8cc#
8ff#
8a
8gg#
8eJ
=31
8aaL
8f#
8g#
8ee
8dd#X
8aaJ
=32
8gg#L
8f#
8e
8b#X
8cc#
8gg#J
=33
8aaL
8f#
8g#
8ee
8dd#X
8aaJ
=34
8gg#L
8f#
8e
8b#X
8cc#
8gg#J
=35
8aaL
8ff#
8bb#X
8gg#
8ccc#
8eeJ
!!LO:LB:g=original
=36
8ddd#XL
8b#X
8cc#
8dd#X
8g#
8gg#J
=37
8eeL
8cc#
8f#
8ff#
8g#
8dd#XJ
=38
(16cc#LL
16b#XJ
8cc#)J
8r
8eeL
8g#
8bnJ
=39
8a#XL
8cc#
8f#
8ggn
8ff#
8ccc#J
=40
8dddL
8aa#X
8bb
8b
8f#
8anJ
=41
8g#L
8b
8e
8ff#
8ee
8dddJ
!!LO:LB:g=original
=42
8ccc#L
8gg#
8aa
8a
8cc#
8aJ
=43
8bL
8aa
8gg#
8ee#X
8ff#
8gg#J
=44
2ee#X
8r
8ff#
=45
4.ff#
8cc#L
8a
8cc#J
=46
8f#L
8a
8cc#
8ff#
8aa
8ff#J
=47
8bL
8dd
8ff#
8bb
8ddd
8bbJ
!!LO:LB:g=original
=48
8e#XL
8g#
8cc#
8ee#X
8gg#
8bJ
=49
8aL
8ff#
8g#
8ff#
8cc#
8ee#XJ
=50
8d\L
8ee#X
8ff#
8cc#
8dd
8a#XJ
=51
8bL
8aa#X
8bb
8gg#
8aan
8ff#J
=52
8cc#L
8bb#X
8ccc#
8ddd
8ee#X
8ccc#J
=53
8aaL
8ff#
8cc#
8ff#
8g#
8ee#XJ
=54
2ff#
==:|
*-
!!!RTL1: G. PH. Telemann: Twelve Fantasias for Flute without Bass TWV 40:2-13
!!!RPN1: D'Arcangelo, Rita
!!!RMM1: Da Vinci Classics
!!!RC#1: DV-C00440
!!!RRD1: 2022
!!!RLC1: Andreaskirche, Berlin, Germany
!!!RDT1: 16 September 2020, 17 September 2020
!!!RT#1: 10
!!!RTL2: The Telemann Files: 12 Fantasies for Solo Flute
!!!RPN2: Choi, Jasmine
!!!RMM2: Austrian Gramophone
!!!RC#2: AG0001
!!!RRD2: February 2015
!!!RLC2: LeFrak Hall, Queens, USA
!!!RDT2: 9 June 2014, 10 June 2014
!!!RT#2: 10
!!!RTL3: Georg Philipp Telemann: Twelve Fantasies for Flute
!!!RPN3: Robertello, Thomas
!!!RMM3: Delos
!!!RC#3: DE3396
!!!RRD3: 1 June 2009
!!!RLC3: Clear Creek Recording, Keene, California
!!!RDT3: Unknown
!!!RT#3: 10
